src/assets/filled/ToggleOn.svg

<svg width="24" height="24" viewBox="0 0 24 24"  xmlns="http://www.w3.org/2000/svg">
<path d="M16.65 3.86035H7.35C3.25 3.86035 2 5.11035 2 9.21035V14.7904C2 18.8904 3.25 20.1404 7.35 20.1404H16.65C20.75 20.1404 22 18.8904 22 14.7904V9.21035C22 5.11035 20.75 3.86035 16.65 3.86035ZM18.74 13.1204C18.74 15.3704 17.69 16.4204 15.44 16.4204H13.21C10.96 16.4204 9.91 15.3704 9.91 13.1204V10.8904C9.91 8.64035 10.96 7.59035 13.21 7.59035H15.44C17.69 7.59035 18.74 8.64035 18.74 10.8904V13.1204Z" />
</svg>

<?xml version="1.0" encoding="UTF-8"?>
<svg width="24" height="24" viewBox="0 0 24 24" xmlns="http://www.w3.org/2000/svg">
 <path d="m16.65 3.8604h-9.3c-4.1 0-5.35 1.25-5.35 5.35v5.58c0 4.1 1.25 5.35 5.35 5.35h9.3c4.1 0 5.35-1.25 5.35-5.35v-5.58c0-4.1-1.25-5.35-5.35-5.35zm2.09 9.26c0 2.25-1.05 3.3-3.3 3.3h-2.23c-2.25 0-3.3-1.05-3.3-3.3v-2.23c0-2.25 1.05-3.3 3.3-3.3h2.23c2.25 0 3.3 1.05 3.3 3.3v2.23z"/>
</svg>
